X:1
T:Hold Fast Till I Come
T:Philip Paul Bliss
T:Hold Fast Till I Come
T:Public Domain
T:Public Domain
C:Philip Paul Bliss
Z:Public Domain
%%score ( 1 2 ) 3
L:1/8
M:4/4
K:D
V:1 treble 
V:2 treble 
V:3 bass 
V:1
 [FA] | [FA]2 [FA]>[^E^G] [FA]2 [DF][Fd] | [Ec]2 [DB]>[C^A] [DB]3 [DB] | %3
w: 1.~Oh,|spir- it, o’er- whelmed by thy|fail- ures and fears, Look|
w: 2.~Hold|fast when the world would al-|lure thee to sin; Hold|
w: 3.~Thy|Sav- ior is com- ing in|ten- der- est love, To|
 [FA]2 [FA]>[^E^G] [FA]2 [=E=G][DF] | [DF]2 [CE]>[^B,^D] [CE]3 [GA] | %5
w: up to thy Lord, though with|trem- bling and tears; Weak|
w: fast when the tempt- er as-|sails from with- in; In|
w: make up His jew- els and|bear them a- bove: Oh,|
 [FA]2 [FA]>[^E^G] [FA]2 [DF][Fd] | [Ec]2 [DB]>[C^A] [DB]3 [GB] | (Bd)[=Gd][Gd] [Gd] [Ac]2 [Ee] | %8
w: Faith, to thy call seem the|heav’ns on- ly dumb? To|thee * is the mes- sage, “Hold|
w: sun- shine or sad- ness, in|gain or in loss, To|fal- * ter were mad- ness; oh,|
w: child, in thine ang- uish, des-|pair- ing or dumb, Re-|mem- * ber the mes- sage, “Hold|
 (ed) [Ec]>[DB] [CA]3 ||"^Refrain" A | [Fd]2 [Ad]>[Gd] [Fd]3 [Fd] | [Ae]2 [Ae]>[^Ge] [Ae]3 [Ae] | %12
w: till * I come.” *||||
w: to * the cross. Hold|till|I come, hold fast till|I come, A bright crown|
w: till * I come.” *||||
 [Af][Ge][Fd][Ac] Bc[Ad][Be] | [Ad]2 [Gc]>[Fd] [Fd]6 |] %14
w: ||
w: a- waits thee; Hold fast till I come.||
w: ||
V:2
 x | x8 | x8 | x8 | x8 | x8 | x8 | ^G2 x6 | F2 x5 || x | x8 | x8 | x4 G2 x2 | x10 |] %14
w: |||||||fast|||||||
w: |||||||cling|fast||||||
w: |||||||fast|||||||
V:3
 D, | D,2 D,>D, D,2 D,D, | G,2 G,>G, G,3 G, | D,2 D,>D, D,2 D,D, | A,,2 A,,>A,, A,,3 A,, | %5
 D,2 D,>D, D,2 D,D, | G,2 G,>G, G,3 G, | E,2 E,E, A, A,2 C, | D,2 E,>E, A,,3 || A, | %10
 [D,A,]2 [F,D]>[E,D] [D,D]3 [D,D] | [A,C]2 [CE]>[B,D] [A,C]3 [A,C] | %12
 [D,D]2 [D,D][F,D] [G,D][E,E][F,D][G,B,] | [A,F]2 [A,,E]>[A,,D] [D,D]6 |] %14

